src/svg/list-unordered.svg

<svg height="16" width="12" xmlns="http://www.w3.org/2000/svg" viewBox="0 0 12 16">
  <path d="M2 13c0 0.59 0 1-0.59 1H0.59c-0.59 0-0.59-0.41-0.59-1s0-1 0.59-1h0.81c0.59 0 0.59 0.41 0.59 1z m2.59-9h6.81c0.59 0 0.59-0.41 0.59-1s0-1-0.59-1H4.59c-0.59 0-0.59 0.41-0.59 1s0 1 0.59 1zM1.41 7H0.59c-0.59 0-0.59 0.41-0.59 1s0 1 0.59 1h0.81c0.59 0 0.59-0.41 0.59-1s0-1-0.59-1z m0-5H0.59c-0.59 0-0.59 0.41-0.59 1s0 1 0.59 1h0.81c0.59 0 0.59-0.41 0.59-1s0-1-0.59-1z m10 5H4.59c-0.59 0-0.59 0.41-0.59 1s0 1 0.59 1h6.81c0.59 0 0.59-0.41 0.59-1s0-1-0.59-1z m0 5H4.59c-0.59 0-0.59 0.41-0.59 1s0 1 0.59 1h6.81c0.59 0 0.59-0.41 0.59-1s0-1-0.59-1z" />
</svg>

<?xml version="1.0" encoding="UTF-8" standalone="no"?>
<svg width="12px" height="16px" viewBox="0 0 12 16" version="1.1" xmlns="http://www.w3.org/2000/svg" xmlns:xlink="http://www.w3.org/1999/xlink">
    <!-- Generator: Sketch 3.7.1 (28215) - http://www.bohemiancoding.com/sketch -->
    <title>list-unordered</title>
    <desc>Created with Sketch.</desc>
    <defs></defs>
    <g id="Octicons" stroke="none" stroke-width="1" fill="none" fill-rule="evenodd">
        <g id="list-unordered" fill="#000000">
            <path d="M2,13 C2,13.59 2,14 1.41,14 L0.59,14 C0,14 0,13.59 0,13 C0,12.41 0,12 0.59,12 L1.4,12 C1.99,12 1.99,12.41 1.99,13 L2,13 Z M4.59,4 L11.4,4 C11.99,4 11.99,3.59 11.99,3 C11.99,2.41 11.99,2 11.4,2 L4.59,2 C4,2 4,2.41 4,3 C4,3.59 4,4 4.59,4 L4.59,4 Z M1.41,7 L0.59,7 C0,7 0,7.41 0,8 C0,8.59 0,9 0.59,9 L1.4,9 C1.99,9 1.99,8.59 1.99,8 C1.99,7.41 1.99,7 1.4,7 L1.41,7 Z M1.41,2 L0.59,2 C0,2 0,2.41 0,3 C0,3.59 0,4 0.59,4 L1.4,4 C1.99,4 1.99,3.59 1.99,3 C1.99,2.41 1.99,2 1.4,2 L1.41,2 Z M11.41,7 L4.59,7 C4,7 4,7.41 4,8 C4,8.59 4,9 4.59,9 L11.4,9 C11.99,9 11.99,8.59 11.99,8 C11.99,7.41 11.99,7 11.4,7 L11.41,7 Z M11.41,12 L4.59,12 C4,12 4,12.41 4,13 C4,13.59 4,14 4.59,14 L11.4,14 C11.99,14 11.99,13.59 11.99,13 C11.99,12.41 11.99,12 11.4,12 L11.41,12 Z" id="Shape"></path>
        </g>
    </g>
</svg>
